X: 12160
T: Exhale
R: jig
M: 6/8
K: Dmajor
|:DFA {c}d2D|{cd}c2D {Bc}BAF|~E3 GAB|AB/2c/2d ecA|
{c}d2f Ada|{ga}g2f ecA|~B3 def|edc {c}d3:|
{g}a2A {ga}g2A|~f3 dc=c|Bdg bB{g}a-|agf efg|
{g}a2A {ga}g2A|~f3 dcA|~B3 def|edc {c}d3:|

